X:14449
T:ROND DE LOUDEAC 1
Z: Yves Belotteau
M:4/4
L:1/8
Q:1/4=160
K:G 
|:ddBd3/2 z/2 e3/2 z/2 f|edBd3/2 z/2 e3/2 z/2 d:|
|:Bcd3/2 z/2 dBA|cBGA AG3/2 z/2 G3/2 z/2:|!
|:GABc ded3/2 z/2 |GABc d3/2 z/2 d3/2 z/2 :|
|:d3/2 z/2 ed cBA3/2 z/2 |AGAB cBA3/2 z/2 |d3/2 z/2 ed cBA3/2 z/2 |AGAB 
A3/2 z/2 G3/2 z/2:|
